!!! OTL: Berkowitz409
!!! Chapter: 1
!!! Section: III
!!! Page: 102
!!! Mode: 
!!! Encoder: DJB
**kern
*staff1
*I"Piano
=1-
*clefC3
*k[b-e-a-]
*c:
*M3/4
8g\L
8e-\J
8Bn/L
8c/J
4a-\
=2
8g\L
8en\J
8g\L
8a-\J
4cc\
=3
8d\L
8c#\J
8d\L
8a-\J
8g\L
8f\J
=4
16f\LL
16e-\
16d\
16e-\JJ
4c\
4r
=5
8a-\L
8en\J
8f\L
8a-\J
4cc\
=6
8g\L
8d\J
8e-\L
8g\J
8cc\L
8e-\J
=7
!!linebreak:original
8d\L
8a-\J
8g\L
8f\J
8e-\L
8Bn\J
=8
4.d\
8e-\
4c\
=9
8d\L
8a-\J
8g\L
8f\J
8e-\L
8Bn\J
=10
4.d\
8e-\
4c\
==
*-
